img/social/Telegram70.svg

<svg width="70" height="70" viewBox="0 0 70 70" fill="none" xmlns="http://www.w3.org/2000/svg">
<path fill-rule="evenodd" clip-rule="evenodd" d="M70 35C70 54.34 54.34 70 35 70C15.66 70 0 54.34 0 35C0 15.66 15.66 0 35 0C54.34 0 70 15.66 70 35Z" fill="#05A1EC"/>
<path fill-rule="evenodd" clip-rule="evenodd" d="M28.5798 36.2518L42.5708 28.2318L45.2083 26.7338C45.6024 26.5068 45.9814 26.991 45.6479 27.2785L32.2026 38.2492L31.5659 38.7637C31.4295 38.8848 31.3386 39.0361 31.3083 39.2177L31.1718 40.3828L30.7777 43.6665C30.7777 43.6967 30.7777 43.7421 30.7474 43.7724C30.7171 43.8026 30.6868 43.8178 30.6413 43.8178C30.5958 43.8329 30.5655 43.8178 30.5352 43.7875C30.5049 43.7573 30.4897 43.727 30.4746 43.6816L29.3832 40.4131L28.2463 37.0538C28.2008 36.9025 28.216 36.736 28.2766 36.5847C28.3372 36.4485 28.4434 36.3274 28.5798 36.2518ZM49.4526 22.2093L48.9069 22.406L19.1211 33.1043C18.9089 33.18 18.727 33.3162 18.6057 33.4826C18.4844 33.6642 18.4086 33.8912 18.4238 34.103C18.439 34.33 18.5147 34.5419 18.6663 34.7083C18.8028 34.8748 18.9998 34.9958 19.212 35.0412L26.9275 37.1446L28.3524 41.3513L29.7924 45.5731C29.8834 45.7698 30.0046 45.9665 30.1865 46.1027C30.3533 46.254 30.5503 46.3448 30.7777 46.3902C30.9899 46.4508 31.2173 46.4356 31.4295 46.3751C31.6417 46.3146 31.8388 46.2086 32.0055 46.0573L35.9921 42.3046L43.7986 47.6008C44.7687 48.2515 46.1178 47.7672 46.3603 46.6929L51.5444 23.8436C51.8021 22.7238 50.6046 21.7856 49.4526 22.2093Z" fill="white"/>
</svg>

<svg width="70" height="70" fill="none" xmlns="http://www.w3.org/2000/svg"><path fill-rule="evenodd" clip-rule="evenodd" d="M70 35c0 19.34-15.66 35-35 35S0 54.34 0 35 15.66 0 35 0s35 15.66 35 35Z" fill="#05A1EC"/><path fill-rule="evenodd" clip-rule="evenodd" d="m28.58 36.252 13.99-8.02 2.638-1.498c.394-.227.773.257.44.544L32.203 38.25l-.637.515a.767.767 0 0 0-.258.454l-.136 1.165-.394 3.283c0 .03 0 .076-.03.106a.138.138 0 0 1-.107.046c-.045.015-.075 0-.106-.03a.243.243 0 0 1-.06-.106l-1.092-3.269-1.137-3.36a.715.715 0 0 1 .03-.468.716.716 0 0 1 .304-.333Zm20.873-14.043-.546.197L19.12 33.104a1.097 1.097 0 0 0-.515.379 1.025 1.025 0 0 0-.182.62c.015.227.09.439.242.605a.98.98 0 0 0 .546.333l7.715 2.104 1.425 4.206 1.44 4.222c.091.197.213.394.394.53.167.151.364.242.592.287.212.06.44.046.652-.015.212-.06.409-.166.575-.318l3.987-3.752L43.8 47.6c.97.65 2.319.166 2.561-.908l5.184-22.85c.258-1.12-.94-2.057-2.091-1.634Z" fill="#fff"/></svg>
